static/images/logos/happyfox.svg

<svg viewBox="0 0 106 20" fill="none" xmlns="http://www.w3.org/2000/svg">
<g clip-path="url(#clip0_6327_1352)">
<path d="M102.318 15.6831L99.358 11.3286L98.929 10.9424L94.9392 5.38672H97.7921L100.431 9.20494L100.838 9.5696L105.15 15.6831H102.318ZM94.7461 15.6831L98.9075 9.91281L100.28 11.6074L97.4918 15.6831H94.7461ZM101.053 10.8995L99.6583 9.22639L102.232 5.38672H104.957L101.053 10.8995Z" fill="#15171A"/>
<path d="M89.9134 15.8972C88.9124 15.8972 88.0043 15.6613 87.1892 15.1893C86.3741 14.7031 85.7234 14.0525 85.2372 13.2373C84.7653 12.4222 84.5293 11.5141 84.5293 10.5131C84.5293 9.51206 84.7653 8.61114 85.2372 7.81031C85.7234 7.00948 86.3741 6.37311 87.1892 5.9012C88.0043 5.41498 88.9124 5.17188 89.9134 5.17188C90.9288 5.17188 91.844 5.40783 92.6591 5.87975C93.4742 6.35166 94.1178 6.99518 94.5897 7.81031C95.0759 8.61114 95.319 9.51206 95.319 10.5131C95.319 11.5141 95.0759 12.4222 94.5897 13.2373C94.1178 14.0525 93.4742 14.7031 92.6591 15.1893C91.844 15.6613 90.9288 15.8972 89.9134 15.8972ZM89.9134 13.6234C90.4997 13.6234 91.0146 13.4947 91.4579 13.2373C91.9155 12.9656 92.2659 12.5938 92.509 12.1219C92.7664 11.65 92.8951 11.1137 92.8951 10.5131C92.8951 9.91248 92.7664 9.38336 92.509 8.92574C92.2515 8.46813 91.9012 8.11062 91.4579 7.85321C91.0146 7.5815 90.4997 7.44565 89.9134 7.44565C89.3414 7.44565 88.8266 7.5815 88.369 7.85321C87.9257 8.11062 87.5753 8.46813 87.3179 8.92574C87.0748 9.38336 86.9532 9.91248 86.9532 10.5131C86.9532 11.1137 87.0748 11.65 87.3179 12.1219C87.5753 12.5938 87.9257 12.9656 88.369 13.2373C88.8266 13.4947 89.3414 13.6234 89.9134 13.6234Z" fill="#15171A"/>
<path d="M79.4746 15.6824V4.03472C79.4746 3.24819 79.6462 2.55462 79.9894 1.954C80.3469 1.35338 80.8332 0.881465 81.4481 0.538254C82.0773 0.195043 82.7995 0.0234375 83.6146 0.0234375C84.2438 0.0234375 84.7801 0.130691 85.2234 0.345198C85.6667 0.559704 86.0814 0.867164 86.4675 1.26758L84.9445 2.79058C84.7729 2.61897 84.587 2.48312 84.3868 2.38301C84.1866 2.28291 83.9292 2.23286 83.6146 2.23286C83.0426 2.23286 82.5993 2.39016 82.2847 2.70477C81.9843 3.00508 81.8342 3.44125 81.8342 4.01327V15.6824H79.4746ZM79.987 7.53118V5.38611H84.9445V7.53118H79.987Z" fill="#15171A"/>
<path d="M72.5224 15.7903L68.125 5.38672H70.7205L73.7236 13.0232H72.9729L76.1476 5.38672H78.7645L73.981 15.7903H72.5224ZM69.4549 19.9732L72.6511 13.3878L73.981 15.7903L72.0719 19.9732H69.4549Z" fill="#15171A"/>
<path d="M63.4171 15.8972C62.6306 15.8972 61.9299 15.7328 61.315 15.4039C60.7 15.0606 60.2138 14.5959 59.8563 14.0096C59.5131 13.4232 59.3415 12.7583 59.3415 12.0146V9.05445C59.3415 8.31083 59.5202 7.64585 59.8778 7.05954C60.2353 6.47322 60.7215 6.0156 61.3364 5.68669C61.9513 5.34348 62.6449 5.17188 63.4171 5.17188C64.3467 5.17188 65.1832 5.41498 65.9269 5.9012C66.6848 6.37311 67.2782 7.01663 67.7073 7.83176C68.1506 8.63259 68.3722 9.54067 68.3722 10.556C68.3722 11.557 68.1506 12.4651 67.7073 13.2802C67.2782 14.0811 66.6848 14.7174 65.9269 15.1893C65.1832 15.6613 64.3467 15.8972 63.4171 15.8972ZM63.031 13.6663C63.603 13.6663 64.1035 13.5376 64.5326 13.2802C64.9759 13.0085 65.3191 12.6367 65.5622 12.1648C65.8196 11.6929 65.9483 11.1495 65.9483 10.5345C65.9483 9.91963 65.8196 9.37621 65.5622 8.9043C65.3191 8.43238 64.9759 8.06772 64.5326 7.81031C64.1035 7.5386 63.603 7.40275 63.031 7.40275C62.459 7.40275 61.9513 7.5386 61.508 7.81031C61.0647 8.06772 60.7215 8.43238 60.4784 8.9043C60.2353 9.37621 60.1137 9.91963 60.1137 10.5345C60.1137 11.1495 60.2353 11.6929 60.4784 12.1648C60.7215 12.6367 61.0647 13.0085 61.508 13.2802C61.9513 13.5376 62.459 13.6663 63.031 13.6663ZM57.9043 19.9729V5.38638H60.2639V8.15352L59.8563 10.6633L60.2639 13.1515V19.9729H57.9043Z" fill="#15171A"/>
<path d="M51.9679 15.8972C51.1814 15.8972 50.4807 15.7328 49.8657 15.4039C49.2508 15.0606 48.7646 14.5959 48.4071 14.0096C48.0639 13.4232 47.8923 12.7583 47.8923 12.0146V9.05445C47.8923 8.31083 48.071 7.64585 48.4285 7.05954C48.7861 6.47322 49.2723 6.0156 49.8872 5.68669C50.5021 5.34348 51.1957 5.17188 51.9679 5.17188C52.8974 5.17188 53.734 5.41498 54.4776 5.9012C55.2356 6.37311 55.829 7.01663 56.258 7.83176C56.7014 8.63259 56.923 9.54067 56.923 10.556C56.923 11.557 56.7014 12.4651 56.258 13.2802C55.829 14.0811 55.2356 14.7174 54.4776 15.1893C53.734 15.6613 52.8974 15.8972 51.9679 15.8972ZM51.5818 13.6663C52.1538 13.6663 52.6543 13.5376 53.0833 13.2802C53.5267 13.0085 53.8699 12.6367 54.113 12.1648C54.3704 11.6929 54.4991 11.1495 54.4991 10.5345C54.4991 9.91963 54.3704 9.37621 54.113 8.9043C53.8699 8.43238 53.5267 8.06772 53.0833 7.81031C52.6543 7.5386 52.1538 7.40275 51.5818 7.40275C51.0098 7.40275 50.5021 7.5386 50.0588 7.81031C49.6155 8.06772 49.2723 8.43238 49.0292 8.9043C48.7861 9.37621 48.6645 9.91963 48.6645 10.5345C48.6645 11.1495 48.7861 11.6929 49.0292 12.1648C49.2723 12.6367 49.6155 13.0085 50.0588 13.2802C50.5021 13.5376 51.0098 13.6663 51.5818 13.6663ZM46.4551 19.9729V5.38638H48.8147V8.15352L48.4071 10.6633L48.8147 13.1515V19.9729H46.4551Z" fill="#15171A"/>
<path d="M39.3164 15.8972C38.3869 15.8972 37.5432 15.6613 36.7853 15.1893C36.0416 14.7174 35.4482 14.0811 35.0048 13.2802C34.5758 12.4651 34.3613 11.557 34.3613 10.556C34.3613 9.54066 34.5758 8.63259 35.0048 7.83176C35.4482 7.01663 36.0416 6.37311 36.7853 5.9012C37.5432 5.41498 38.3869 5.17188 39.3164 5.17188C40.103 5.17188 40.7965 5.34348 41.3972 5.68669C42.0121 6.0156 42.4983 6.47322 42.8558 7.05954C43.2133 7.64585 43.3921 8.31083 43.3921 9.05445V12.0146C43.3921 12.7583 43.2133 13.4232 42.8558 14.0096C42.5126 14.5959 42.0335 15.0606 41.4186 15.4039C40.8037 15.7328 40.103 15.8972 39.3164 15.8972ZM39.7025 13.6663C40.5749 13.6663 41.2756 13.3732 41.8047 12.7869C42.3481 12.2006 42.6198 11.4498 42.6198 10.5345C42.6198 9.91963 42.4983 9.37621 42.2552 8.9043C42.0121 8.43238 41.6689 8.06772 41.2255 7.81031C40.7965 7.5386 40.2889 7.40275 39.7025 7.40275C39.1305 7.40275 38.6229 7.5386 38.1796 7.81031C37.7505 8.06772 37.4073 8.43238 37.1499 8.9043C36.9068 9.37621 36.7853 9.91963 36.7853 10.5345C36.7853 11.1495 36.9068 11.6929 37.1499 12.1648C37.4073 12.6367 37.7505 13.0085 38.1796 13.2802C38.6229 13.5376 39.1305 13.6663 39.7025 13.6663ZM42.4697 15.6827V12.9156L42.8773 10.4058L42.4697 7.91756V5.38638H44.8293V15.6827H42.4697Z" fill="#15171A"/>
<path d="M31.2409 15.6828V9.74094C31.2409 9.05451 31.0192 8.48965 30.5759 8.04633C30.1469 7.60302 29.5892 7.38136 28.9027 7.38136C28.4451 7.38136 28.0376 7.48146 27.6801 7.68167C27.3225 7.88188 27.0437 8.16074 26.8435 8.51825C26.6433 8.87576 26.5432 9.28332 26.5432 9.74094L25.6208 9.22612C25.6208 8.43959 25.7924 7.74602 26.1356 7.1454C26.4788 6.53048 26.9507 6.05142 27.5514 5.70821C28.1663 5.3507 28.8527 5.17194 29.6106 5.17194C30.3828 5.17194 31.0693 5.34354 31.6699 5.68676C32.2705 6.02997 32.7424 6.50903 33.0856 7.12395C33.4288 7.72457 33.6004 8.42529 33.6004 9.22612V15.6828H31.2409ZM24.1836 15.6828V0.238281H26.5432V15.6828H24.1836Z" fill="#15171A"/>
<g clip-path="url(#clip1_6327_1352)">
<path d="M2.58324 8.08719C2.98711 8.08719 3.38336 7.97289 3.72627 7.75444L7.85387 5.13564L2.05745 0.911511C1.20145 0.286656 0 0.898811 0 1.95548V6.39043L1.07699 7.46233C1.48086 7.86366 2.01427 8.08465 2.58578 8.08465L2.58324 8.08719Z" fill="#FF5A00"/>
<path d="M0.452131 12.2698L6.38318 17.3626L8.39491 19.0899C8.86482 19.4937 9.55318 19.5064 10.0383 19.1229L18.4866 12.4603C18.7965 12.2139 18.9793 11.8405 18.9793 11.4443V1.86316C18.9793 0.824275 17.8135 0.20704 16.9549 0.793794L9.17725 6.10253L4.54163 9.04392C3.93964 9.42747 3.2589 9.61289 2.58324 9.61289C1.64088 9.61289 0.706137 9.24966 0 8.54607V11.2893C0 11.6678 0.165104 12.026 0.452131 12.2698Z" fill="#FF5A00"/>
</g>
</g>
<defs>
<clipPath id="clip0_6327_1352">
<rect width="105.149" height="20" fill="white"/>
</clipPath>
<clipPath id="clip1_6327_1352">
<rect width="18.9793" height="18.8346" fill="white" transform="translate(0 0.566406)"/>
</clipPath>
</defs>
</svg>

<svg xmlns="http://www.w3.org/2000/svg" fill="none" viewBox="0 0 106 20"><g clip-path="url(#a)"><path fill="#15171a" d="m102.318 15.683-2.96-4.354-.429-.387-3.99-5.555h2.853l2.639 3.818.407.365 4.312 6.113zm-7.572 0 4.162-5.77 1.372 1.694-2.788 4.076zm6.307-4.783-1.395-1.674 2.574-3.84h2.725zM89.913 15.897q-1.5 0-2.724-.708a5.55 5.55 0 0 1-1.952-1.952q-.708-1.223-.708-2.724 0-1.5.708-2.703a5.43 5.43 0 0 1 1.952-1.909q1.222-.73 2.724-.73 1.524 0 2.746.709a5.2 5.2 0 0 1 1.93 1.93q.73 1.201.73 2.703t-.73 2.724a5.4 5.4 0 0 1-1.93 1.952q-1.222.708-2.746.708m0-2.274q.88 0 1.545-.386a2.72 2.72 0 0 0 1.051-1.115q.386-.708.386-1.609 0-.9-.386-1.587a2.8 2.8 0 0 0-1.051-1.073q-.665-.407-1.545-.407-.858 0-1.544.407a2.8 2.8 0 0 0-1.051 1.073q-.365.686-.365 1.587t.365 1.609q.386.708 1.051 1.115.686.386 1.544.386M79.475 15.682V4.035q0-1.18.514-2.081.537-.9 1.46-1.416.942-.515 2.166-.515.944 0 1.608.322a4.4 4.4 0 0 1 1.245.923L84.945 2.79a2.2 2.2 0 0 0-.558-.408q-.3-.15-.772-.15-.859 0-1.33.472-.45.45-.45 1.308v11.67zm.512-8.15V5.385h4.958v2.145zM72.522 15.79 68.125 5.387h2.596l3.003 7.636h-.751l3.175-7.636h2.617L73.98 15.79zm-3.067 4.183 3.196-6.585 1.33 2.402-1.91 4.183zM63.417 15.897q-1.18 0-2.102-.493a3.9 3.9 0 0 1-1.459-1.394q-.514-.88-.514-1.995v-2.96q0-1.117.536-1.995a3.74 3.74 0 0 1 1.458-1.373q.923-.515 2.081-.515 1.395 0 2.51.73a4.93 4.93 0 0 1 1.78 1.93q.666 1.2.665 2.724 0 1.502-.665 2.724a5 5 0 0 1-1.78 1.91q-1.115.707-2.51.707m-.386-2.23q.857 0 1.502-.387a2.77 2.77 0 0 0 1.03-1.115q.385-.708.385-1.63 0-.923-.386-1.63a2.62 2.62 0 0 0-1.03-1.095q-.642-.407-1.501-.407t-1.523.407a2.62 2.62 0 0 0-1.03 1.094q-.364.709-.364 1.63 0 .923.364 1.63.365.71 1.03 1.116.665.386 1.523.386m-5.127 6.306V5.386h2.36v2.768l-.408 2.51.408 2.488v6.82zM51.968 15.897q-1.18 0-2.102-.493a3.9 3.9 0 0 1-1.459-1.394q-.515-.88-.515-1.995v-2.96q0-1.117.536-1.995a3.75 3.75 0 0 1 1.46-1.373q.922-.515 2.08-.515 1.394 0 2.51.73a4.93 4.93 0 0 1 1.78 1.93q.665 1.2.665 2.724 0 1.502-.665 2.724a4.97 4.97 0 0 1-1.78 1.91q-1.115.707-2.51.707m-.386-2.23q.858 0 1.501-.387a2.77 2.77 0 0 0 1.03-1.115q.386-.708.386-1.63 0-.923-.386-1.63a2.62 2.62 0 0 0-1.03-1.095q-.644-.407-1.501-.407-.858 0-1.523.407a2.62 2.62 0 0 0-1.03 1.094q-.365.709-.365 1.63 0 .923.365 1.63.364.71 1.03 1.116.664.386 1.523.386m-5.127 6.306V5.386h2.36v2.768l-.408 2.51.408 2.488v6.82zM39.316 15.897q-1.395 0-2.53-.708a5.2 5.2 0 0 1-1.781-1.909q-.645-1.223-.644-2.724 0-1.522.644-2.724a5.15 5.15 0 0 1 1.78-1.93 4.6 4.6 0 0 1 2.531-.73q1.18 0 2.081.515a3.74 3.74 0 0 1 1.459 1.373q.536.879.536 1.994v2.96q0 1.117-.536 1.996a3.74 3.74 0 0 1-1.437 1.394q-.922.493-2.103.493m.386-2.23q1.31 0 2.103-.88.815-.879.815-2.253 0-.921-.365-1.63a2.62 2.62 0 0 0-1.03-1.094q-.642-.407-1.523-.407-.858 0-1.522.407-.645.386-1.03 1.094-.365.709-.365 1.63 0 .923.365 1.63.385.71 1.03 1.116.664.386 1.523.386m2.768 2.016v-2.767l.407-2.51-.407-2.488V5.386h2.36v10.297zM31.24 15.683V9.74q.001-1.029-.664-1.695-.644-.665-1.673-.665-.686 0-1.223.3-.535.3-.837.837-.3.537-.3 1.223l-.922-.515q0-1.18.515-2.08a3.7 3.7 0 0 1 1.415-1.438 4 4 0 0 1 2.06-.536q1.158 0 2.059.515.9.515 1.416 1.437.514.9.514 2.102v6.457zm-7.056 0V.238h2.36v15.445z"/><g fill="#ff5a00" clip-path="url(#b)"><path d="M2.583 8.087c.404 0 .8-.114 1.143-.333l4.128-2.618L2.057.912C1.201.287 0 .899 0 1.955V6.39l1.077 1.072c.404.402.937.623 1.509.623z"/><path d="m.452 12.27 5.931 5.093 2.012 1.727c.47.404 1.158.416 1.643.033l8.449-6.663a1.3 1.3 0 0 0 .492-1.016v-9.58c0-1.04-1.165-1.657-2.024-1.07L9.177 6.103l-4.635 2.94A3.655 3.655 0 0 1 0 8.546v2.744c0 .379.165.737.452.98"/></g></g><defs><clipPath id="a"><path fill="#fff" d="M0 0h105.149v20H0z"/></clipPath><clipPath id="b"><path fill="#fff" d="M0 .566h18.979v18.835H0z"/></clipPath></defs></svg>
